images/icon/block.svg

<?xml version="1.0" encoding="UTF-8"?>
<svg width="42px" height="40px" viewBox="0 0 42 40" version="1.1" xmlns="http://www.w3.org/2000/svg" xmlns:xlink="http://www.w3.org/1999/xlink">
    <title>A3167468-63F1-4BE9-A86E-C306EF8CE74C</title>
    <g id="Page-1" stroke="none" stroke-width="1" fill="none" fill-rule="evenodd" opacity="0.498325893">
        <g id="Order-Page" transform="translate(-51.000000, -282.000000)" fill="#FFFFFF" fill-rule="nonzero">
            <g id="inventoryIcon" transform="translate(51.000000, 282.000000)">
                <path d="M20.3043478,0.391304348 L1.34782609,6.82608696 C0.652173913,7.04347826 0.217391304,7.69565217 0.217391304,8.43478261 L0.217391304,31.5652174 C0.217391304,32.3043478 0.695652174,32.9565217 1.34782609,33.173913 L20.3043478,39.6086957 C20.6521739,39.7391304 21.0434783,39.7391304 21.3913043,39.6086957 L40.3478261,33.173913 C41.0434783,32.9565217 41.4782609,32.3043478 41.4782609,31.5652174 L41.4782609,8.43478261 C41.4782609,7.69565217 41,7.04347826 40.3478261,6.82608696 L21.4347826,0.391304348 C21.0434783,0.260869565 20.6956522,0.260869565 20.3043478,0.391304348 Z M34.5652174,8.43478261 L20.8695652,13.0869565 L7.17391304,8.43478261 L20.8695652,3.7826087 L34.5652174,8.43478261 Z M3.60869565,10.7826087 L19.173913,16.0869565 L19.173913,35.6521739 L3.60869565,30.3478261 L3.60869565,10.7826087 Z M22.5652174,35.6521739 L22.5652174,16.0869565 L38.1304348,10.7826087 L38.1304348,30.3478261 L22.5652174,35.6521739 Z" id="Shape"></path>
            </g>
        </g>
    </g>
</svg>

<svg xmlns="http://www.w3.org/2000/svg" width="42" height="40" viewBox="0 0 42 40">
    <g fill="none" fill-rule="evenodd">
        <g fill="#FFF" fill-rule="nonzero">
            <g>
                <path d="M20.304.391L1.348 6.826c-.696.217-1.13.87-1.13 1.609v23.13c0 .74.478 1.392 1.13 1.609l18.956 6.435c.348.13.74.13 1.087 0l18.957-6.435c.695-.217 1.13-.87 1.13-1.609V8.435c0-.74-.478-1.392-1.13-1.609L21.435.391c-.392-.13-.74-.13-1.13 0zm14.261 8.044L20.87 13.087 7.174 8.435 20.87 3.783l13.695 4.652zM3.61 10.783l15.565 5.304v19.565L3.609 30.348V10.783zm18.956 24.87V16.086l15.565-5.304v19.565l-15.565 5.304z" transform="translate(-51 -282) translate(51 282)"/>
            </g>
        </g>
    </g>
</svg>
